icons/lines/vuesax.svg

<svg xmlns="http://www.w3.org/2000/svg" width="24" height="24" viewBox="0 0 24 24" fill="none" stroke="currentColor" stroke-width="2" stroke-linecap="round" stroke-linejoin="round">
  <path d="m21 8-9 14L2.96 8" />
  <path d="M3 4h3l6 9 6-9h3l-9 14z" />
  <path d="m8 3 4 6 4-6-2.8 1V2h-2.4v2z" />
</svg>

<svg xmlns="http://www.w3.org/2000/svg" width="24" height="24" viewBox="0 0 24 24" fill="none" stroke="currentColor" stroke-width="2" stroke-linecap="round" stroke-linejoin="round" >
  <path d="M21 8L12 22L2.95996 8" stroke-miterlimit="10"/>
  <path d="M3 4H6L12 13L18 4H21L12 18L3 4Z" stroke-miterlimit="10"/>
  <path d="M8 3L12 9L16 3L13.2 4V2H10.8V4L8 3Z" stroke-miterlimit="10"/>
  </svg>
